;FLAVOR:Marlin
;TIME:4018
;Filament used: 3.71837m, 0m
;Layer height: 0.2
;MINX:94.335
;MINY:88.833
;MINZ:0.3
;MAXX:154.785
;MAXY:121.128
;MAXZ:47.9
;Generated with Cura_SteamEngine 4.11.0
T0
M140 S60
M105
M190 S60
M104 S230
M105
M109 S230
M82 ;absolute extrusion mode
G21 ; millimeter units
G90 ; absolute positioning
M82 ; absolute extruder
M107 ; fan off
M851 Z-2.82 ; set Z probe offset
G28 ; home
G1 X1 Y-10 Z3 F6000 ; move to front left corner
G92 E0 ; zero extruder
G1 F180 E30 ; extrude blob
G1 F90 Z10 E35 ; raise and continue extruding
G1 E37 ; extrude a little more
G92 E0 ; zero extruder
G1 X20 F6000 ; set speed for next move(s)
M117 Printing... ; LCD message
G92 E0
G92 E0
G1 F1500 E-3
;LAYER_COUNT:240
M900 K0.000000 T0 ;added by LinearAdvanceSettingPlugin
;LAYER:0
M107
;MESH:3DBenchy.stl
G0 F3600 X117.723 Y106.067 Z0.3
;TYPE:WALL-INNER
G1 F1500 E0
G1 F1800 X117.725 Y105.869 E0.00988
G1 X117.727 Y104.111 E0.09759
G1 X117.725 Y103.874 E0.10941
G1 X117.725 Y103.873 E0.10946
G1 X117.725 Y103.661 E0.12004
G1 X117.937 Y103.674 E0.12677
G1 X118.501 Y103.709 E0.15496
G1 X118.653 Y103.762 E0.163
G1 X118.766 Y103.862 E0.17052
G1 X118.917 Y104.17 E0.18764
G1 X119.005 Y104.608 E0.20993
G1 X119.016 Y105.076 E0.23328
G1 X118.96 Y105.552 E0.25719
G1 X118.829 Y105.924 E0.27687
G1 X118.676 Y106.118 E0.2892
G1 X118.501 Y106.216 E0.2992
G1 X117.941 Y106.268 E0.32726
G1 X117.722 Y106.287 E0.33823
G1 X117.722 Y106.068 E0.34512
G1 X117.723 Y106.067 E0.3452
G0 F3600 X117.616 Y106.691
;TYPE:WALL-OUTER
G1 F1800 X117.544 Y106.693 E0.34879
G1 X117.369 Y106.667 E0.35762
G1 X117.316 Y106.561 E0.36353
G1 X117.317 Y106.489 E0.36712
G1 X117.328 Y105.97 E0.39302
G1 X117.325 Y105.869 E0.39806
G1 X117.327 Y104.112 E0.48572
G1 X117.323 Y103.339 E0.52428
G1 X117.358 Y103.267 E0.52828
G1 X118.064 Y103.256 E0.5635
G1 X118.592 Y103.317 E0.59002
G1 X118.86 Y103.41 E0.60417
G1 X119.09 Y103.615 E0.61954
G1 X119.299 Y104.041 E0.64322
G1 X119.404 Y104.565 E0.66988
G1 X119.417 Y105.092 E0.69618
G1 X119.352 Y105.643 E0.72386
G1 X119.184 Y106.119 E0.74904
G1 X118.94 Y106.429 E0.76873
G1 X118.653 Y106.589 E0.78512
G1 X118.58 Y106.609 E0.7889
G1 X118.072 Y106.676 E0.81446
G1 X117.616 Y106.691 E0.83722
G0 F3600 X117.544 Y106.693
G0 X117.417 Y106.675
G0 X118.115 Y105.86
;TYPE:SKIN
G1 F1800 X118.117 Y104.076 E0.92623
G1 X118.45 Y104.104 E0.9429
G1 X118.546 Y104.302 E0.95388
G1 X118.615 Y104.648 E0.97148
G1 X118.626 Y105.055 E0.99179
G1 X118.577 Y105.466 E1.01244
G1 X118.419 Y105.814 E1.03151
G1 X118.115 Y105.86 E1.04685
G0 F3600 X118.402 Y105.392
G1 F1800 X118.294 Y105.283 E1.0545
G0 F3600 X118.44 Y104.863
G1 F1800 X118.295 Y104.718 E1.06473
G0 F3600 X112.682 Y103.456
;TYPE:WALL-INNER
G1 F1800 X112.362 Y103.554 E1.08143
G1 X112.66 Y103.412 E1.08239
G1 X112.708 Y103.389 E1.08495
G1 X112.682 Y103.456
G1 F1500 E-1.91505
G0 F3600 X116.749 Y102.666
G0 X129.683 Y106.724
G0 X131.835 Y104.645
G1 F1500 E1.08495
G1 F1800 X132.008 Y104.783 E1.09599
G1 X132.182 Y104.922 E1.1071
G1 X132.571 Y105.035 E1.12731
G1 X132.595 Y105.041 E1.12854
G1 X132.842 Y105.057 E1.14089
G1 X133.004 Y105.069 E1.149
G1 X132.882 Y105.243 E1.15338
G1 X132.824 Y105.324 E1.15595
G1 X132.81 Y105.344 E1.15717
G1 X132.222 Y106.162 E1.20743
G1 X131.831 Y106.72 E1.24142
G1 X131.623 Y107.226 E1.26872
G1 X131.599 Y107.696 E1.2922
G1 X131.768 Y108.206 E1.319
G1 X132.021 Y108.497 E1.33824
G1 X132.328 Y108.66 E1.35558
G1 X132.818 Y108.701 E1.38011
G1 X133.295 Y108.674 E1.40395
G1 X134.061 Y108.683 E1.44216
G1 X134.327 Y108.683 E1.45544
G1 X134.743 Y108.683 E1.47619
G1 X134.837 Y108.682 E1.48088
G1 X134.744 Y108.768 E1.48258
G1 X134.432 Y109.043 E1.49567
G1 X134.303 Y109.157 E1.50426
G1 X133.76 Y109.594 E1.53904
G1 X133.308 Y109.924 E1.56696
G1 X132.771 Y110.283 E1.59918
G1 X132.37 Y110.531 E1.62271
G1 X131.835 Y110.833 E1.65336
G1 X131.101 Y111.2 E1.6943
G1 X130.662 Y111.392 E1.7182
G1 X130.085 Y111.626 E1.74927
G1 X129.611 Y111.791 E1.77431
G1 X129.052 Y111.969 E1.80358
G1 X128.525 Y112.109 E1.83078
G1 X127.794 Y112.272 E1.86814
G1 X127.508 Y112.324 E1.88265
G1 X127.006 Y112.402 E1.90799
G1 X126.411 Y112.472 E1.93788
G1 X125.89 Y112.51 E1.96394
G1 X125.287 Y112.534 E1.99405
G1 X124.68 Y112.53 E2.02434
G1 X124.164 Y112.508 E2.0501
G1 X116.439 Y112.033 E2.43623
G1 X114.459 Y111.914 E2.53519
G1 X103.138 Y111.224 E3.10105
G1 X100.779 Y111.076 E3.21897
G1 X100.427 Y111 E3.23694
G1 X100.172 Y110.866 E3.25131
G1 X99.952 Y110.655 E3.26652
G1 X99.807 Y110.403 E3.28102
G1 X99.703 Y109.864 E3.30841
G1 X99.703 Y107.447 E3.42899
G1 X99.703 Y106.922 E3.45518
G1 X99.703 Y106.583 E3.4721
G1 X99.824 Y106.922 E3.47545
G1 X100.084 Y107.378 E3.4928
G1 X100.11 Y107.423 E3.49539
G1 X100.578 Y107.939 E3.53015
G1 X101.151 Y108.328 E3.5647
G1 X101.685 Y108.538 E3.59333
G1 X102.312 Y108.648 E3.62509
G1 X103.005 Y108.637 E3.65967
G1 X103.652 Y108.494 E3.69272
G1 X104.167 Y108.238 E3.72142
G1 X104.618 Y107.824 E3.75196
G1 X104.914 Y107.299 E3.78203
G1 X104.978 Y106.896 E3.80239
G1 X104.806 Y106.439 E3.82675
G1 X104.429 Y106.099 E3.85208
G1 X103.985 Y105.946 E3.8755
G1 X103.535 Y105.959 E3.89796
G1 X103.126 Y106.156 E3.92061
G1 X102.866 Y106.407 E3.93864
G1 X102.694 Y106.452 E3.94751
G1 X102.413 Y106.446 E3.96154
G1 X102.167 Y106.363 E3.97449
G1 X101.962 Y106.206 E3.98737
G1 X101.816 Y105.969 E4.00126
G1 X101.706 Y105.568 E4.022
G1 X101.664 Y104.995 E4.05067
G1 X101.683 Y104.534 E4.07369
G1 X101.786 Y104.042 E4.09876
G1 X101.915 Y103.783 E4.1132
G1 X102.079 Y103.619 E4.12477
G1 X102.404 Y103.487 E4.14227
G1 X102.621 Y103.486 E4.1531
G1 X102.802 Y103.563 E4.16291
G1 X103.273 Y103.846 E4.19032
G1 X103.771 Y104.002 E4.21636
G1 X104.176 Y103.966 E4.23665
G1 X104.587 Y103.723 E4.26047
G1 X104.788 Y103.422 E4.27852
G1 X104.875 Y103.292 E4.28633
G1 X104.898 Y103.147 E4.29365
G1 X104.916 Y103.041 E4.29902
G1 X104.951 Y103.155 E4.29983
G1 X104.983 Y103.189
G1 X105.091 Y103.303 E4.30575
G1 X105.272 Y103.494 E4.31888
G1 X105.677 Y103.637 E4.34031
G1 X106.1 Y103.63 E4.36142
G1 X106.447 Y103.589 E4.37885
G1 X106.616 Y103.57 E4.38733
G1 X106.708 Y103.586 E4.39199
G1 X106.717 Y103.623 E4.39389
G1 X106.708 Y103.793 E4.40239
G1 X106.683 Y104.207 E4.42308
G1 X106.692 Y105.093 E4.46728
G1 X106.687 Y106.333 E4.52915
G1 X106.699 Y106.964 E4.56063
G1 X106.655 Y107.581 E4.59149
G1 X106.776 Y108.023 E4.61436
G1 X107.036 Y108.311 E4.63371
G1 X107.49 Y108.494 E4.65814
G1 X107.964 Y108.499 E4.68178
G1 X108.419 Y108.296 E4.70664
G1 X108.71 Y107.928 E4.73005
G1 X108.844 Y107.406 E4.75693
G1 X108.828 Y106.669 E4.79371
G1 X108.827 Y106.422 E4.80604
G1 X108.831 Y105.806 E4.83677
G1 X108.83 Y104.4 E4.90691
G1 X108.833 Y103.894 E4.93216
G1 X108.833 Y103.785 E4.9376
G1 X108.838 Y103.6 E4.94683
G1 X108.947 Y103.602 E4.95123
G1 X109.271 Y103.61 E4.9674
G1 X109.85 Y103.574 E4.99634
G1 X110.317 Y103.404 E5.02114
G1 X110.585 Y103.131 E5.04022
G1 X110.604 Y103.111 E5.0416
G1 X110.647 Y102.996 E5.04772
G1 X110.685 Y103.067
G1 X110.865 Y103.404 E5.06292
G1 X111.23 Y103.717 E5.08691
G1 X111.38 Y103.765 E5.09477
G1 X111.596 Y103.833 E5.10606
G1 X111.698 Y103.814 E5.11124
G1 X111.611 Y103.87 E5.11156
G1 X111.496 Y104.065 E5.11885
G1 X111.352 Y104.309 E5.13298
G1 X111.275 Y104.766 E5.1561
G1 X111.353 Y105.156 E5.17595
G1 X111.574 Y105.474 E5.19527
G1 X112.008 Y105.689 E5.21943
G1 X112.567 Y105.799 E5.24785
G1 X112.763 Y105.898 E5.25881
G1 X112.942 Y106.091 E5.27194
G1 X112.95 Y106.099 E5.27251
G1 X113.016 Y106.267 E5.28151
G1 X112.976 Y106.408 E5.28882
G1 X112.956 Y106.479 E5.2925
G1 X112.946 Y106.484 E5.29306
G1 X112.821 Y106.551 E5.30014
G1 X112.665 Y106.46 E5.30915
G1 X112.603 Y106.42 E5.31283
G1 X112.229 Y106.175 E5.33513
G1 X111.812 Y106.082 E5.35645
G1 X111.318 Y106.138 E5.38125
G1 X110.89 Y106.394 E5.40613
G1 X110.645 Y106.8 E5.42979
G1 X110.604 Y107.313 E5.45547
G1 X110.737 Y107.757 E5.47859
G1 X111.036 Y108.147 E5.50311
G1 X111.427 Y108.404 E5.52645
G1 X111.995 Y108.591 E5.55629
G1 X112.563 Y108.656 E5.58481
G1 X113.167 Y108.634 E5.61496
G1 X113.792 Y108.48 E5.64708
G1 X114.307 Y108.199 E5.67635
G1 X114.739 Y107.796 E5.70582
G1 X115.093 Y107.223 E5.73942
G1 X115.134 Y107.089 E5.74641
G1 X115.239 Y106.745 E5.76436
G1 X115.285 Y106.596 E5.77214
G1 X115.298 Y106.25 E5.78941
G1 X115.306 Y106.038 E5.8
G1 X115.155 Y105.354 E5.83494
G1 X115.127 Y105.28 E5.83889
G1 X114.925 Y104.758 E5.86681
G1 X114.686 Y104.473 E5.88537
G1 X114.866 Y104.263 E5.89917
G1 X115.028 Y103.745 E5.92625
G1 X115.071 Y103.123 E5.95735
G1 X115.014 Y102.663 E5.98048
G1 X114.834 Y102.226 E6.00406
G1 X114.479 Y101.808 E6.03142
G1 X114.068 Y101.53 E6.05617
G1 X113.466 Y101.333 E6.08777
G1 X112.788 Y101.27 E6.12174
G1 X112.199 Y101.312 E6.1512
G1 X111.637 Y101.461 E6.18021
G1 X111.146 Y101.723 E6.20798
G1 X110.803 Y102.055 E6.23179
G1 X110.789 Y102.069 E6.23278
G1 X110.73 Y102.21 E6.24041
G1 X110.687 Y102.117 E6.24048
G1 X110.527 Y101.771 E6.25596
G1 X110.151 Y101.508 E6.27885
G1 X109.698 Y101.441 E6.3017
G1 X108.976 Y101.45 E6.33772
G1 X108.798 Y101.447 E6.3466
G1 X108.234 Y101.446 E6.37474
G1 X107.792 Y101.448 E6.39679
G1 X106.989 Y101.446 E6.43685
G1 X106.441 Y101.454 E6.4642
G1 X105.799 Y101.41 E6.4963
G1 X105.346 Y101.531 E6.51969
G1 X105.047 Y101.781 E6.53914
G1 X104.863 Y102.132 E6.55891
G1 X104.848 Y102.162 E6.56058
G1 X104.84 Y102.177 E6.56143
G1 X104.819 Y102.38 E6.57161
G1 X104.73 Y102.258 E6.57227
G1 X104.544 Y102.004 E6.58474
G1 X104.517 Y101.984 E6.58632
G1 X104.029 Y101.61 E6.61699
G1 X103.435 Y101.368 E6.64899
G1 X102.849 Y101.278 E6.67857
G1 X102.156 Y101.297 E6.71316
G1 X101.541 Y101.436 E6.74462
G1 X100.915 Y101.737 E6.77927
G1 X100.42 Y102.138 E6.81105
G1 X100.091 Y102.563 E6.83787
G1 X99.988 Y102.696 E6.84626
G1 X99.729 Y103.239 E6.87627
G1 X99.704 Y103.333 E6.88113
G1 X99.704 Y103.239 E6.88125
G1 X99.704 Y102.696 E6.89125
G1 X99.704 Y102.527 E6.89853
G1 X99.704 Y100.132 E7.01802
G1 X99.761 Y99.737 E7.03793
G1 X99.881 Y99.449 E7.05349
G1 X100.067 Y99.219 E7.06825
G1 X100.306 Y99.051 E7.08283
G1 X100.802 Y98.92 E7.10842
G1 X124.308 Y97.484 E8.28333
G1 X125.003 Y97.464 E8.31801
G1 X125.673 Y97.479 E8.35145
G1 X126.337 Y97.521 E8.38464
G1 X127.152 Y97.619 E8.4256
G1 X127.843 Y97.738 E8.46058
G1 X128.628 Y97.917 E8.50075
G1 X129.264 Y98.097 E8.53372
G1 X129.878 Y98.3 E8.56599
G1 X130.342 Y98.474 E8.59071
G1 X130.922 Y98.719 E8.62212
G1 X131.542 Y99.014 E8.65638
G1 X132.019 Y99.268 E8.68334
G1 X132.491 Y99.543 E8.71059
G1 X132.957 Y99.836 E8.73805
G1 X133.459 Y100.183 E8.7685
G1 X133.948 Y100.554 E8.79912
G1 X134.568 Y101.07 E8.83937
G1 X135.117 Y101.584 E8.87689
G1 X135.483 Y101.956 E8.90292
G1 X135.838 Y102.346 E8.92923
G1 X136.205 Y102.781 E8.95763
G1 X136.5 Y103.16 E8.98159
G1 X136.919 Y103.744 E9.01745
G1 X137.198 Y104.17 E9.04285
G1 X137.456 Y104.596 E9.0677
G1 X137.562 Y104.868 E9.08226
G1 X137.567 Y105.103 E9.09399
G1 X137.488 Y105.347 E9.10679
G1 X137.186 Y105.848 E9.13597
G1 X136.888 Y106.307 E9.16327
G1 X136.525 Y106.814 E9.19438
G1 X136.3 Y107.096 E9.21238
G1 X136.151 Y107.284 E9.22435
G1 X136.108 Y107.337 E9.22775
G1 X136.096 Y107.241 E9.22909
G1 X135.975 Y107.035 E9.23693
G1 X135.846 Y106.817 E9.24956
G1 X135.382 Y106.565 E9.27591
G1 X135.027 Y106.518 E9.29377
G1 X134.752 Y106.482 E9.30761
G1 X134.686 Y106.467 E9.31099
G1 X134.7 Y106.447
G1 X134.859 Y106.219 E9.31984
G1 X135.246 Y105.666 E9.35351
G1 X135.599 Y105.174 E9.38373
G1 X135.951 Y104.587 E9.41787
G1 X136.063 Y104.098 E9.4429
G1 X135.991 Y103.552 E9.47038
G1 X135.741 Y103.159 E9.49361
G1 X135.396 Y102.945 E9.51387
G1 X134.881 Y102.88 E9.53977
G1 X134.469 Y102.886 E9.56032
G1 X132.874 Y102.881 E9.6399
G1 X132.281 Y102.975 E9.66985
G1 X131.872 Y103.257 E9.69464
G1 X131.845 Y103.313 E9.69774
G1 X131.769 Y103.466 E9.70626
G1 X131.705 Y103.377 E9.70682
G1 X131.561 Y103.174 E9.71499
G1 X131.225 Y102.945 E9.73528
G1 X130.823 Y102.869 E9.75569
G1 X130.404 Y103.012 E9.77778
G1 X130.11 Y103.278 E9.79756
G1 X129.818 Y103.765 E9.82589
G1 X129.728 Y104.024 E9.83956
G1 X129.576 Y104.463 E9.86274
G1 X129.569 Y104.484 E9.86385
G1 X129.537 Y104.571 E9.86847
G1 X129.512 Y104.508
G1 X129.481 Y104.431 E9.87062
G1 X129.349 Y103.986 E9.8855
G1 X129.316 Y103.877 E9.89119
G1 X129.127 Y103.405 E9.91655
G1 X128.762 Y103.056 E9.94175
G1 X128.357 Y102.902 E9.96336
G1 X127.868 Y102.896 E9.98776
G1 X127.487 Y103.06 E10.00846
G1 X127.218 Y103.403 E10.0302
G1 X127.2 Y103.426 E10.03166
G1 X127.172 Y103.56 E10.03849
G1 X127.12 Y103.479 E10.03853
G1 X126.915 Y103.166 E10.05335
G1 X126.534 Y102.924 E10.07587
G1 X126.122 Y102.874 E10.09658
G1 X125.668 Y103.05 E10.12087
G1 X125.361 Y103.342 E10.14201
G1 X125.267 Y103.431 E10.14847
G1 X125.174 Y103.588 E10.15757
G1 X125.132 Y103.532
G1 X125.055 Y103.428 E10.16263
G1 X124.884 Y103.198 E10.17692
G1 X124.483 Y102.933 E10.2009
G1 X124.087 Y102.871 E10.2209
G1 X123.599 Y103.008 E10.24619
G1 X123.248 Y103.302 E10.26903
G1 X123.066 Y103.727 E10.2921
G1 X123.105 Y104.204 E10.31597
G1 X123.337 Y104.734 E10.34484
G1 X123.726 Y105.417 E10.38405
G1 X123.94 Y105.75 E10.4038
G1 X123.745 Y106.034 E10.42099
G1 X123.475 Y106.504 E10.44803
G1 X123.456 Y106.538 E10.44997
G1 X123.391 Y106.649 E10.45639
G1 X123.27 Y106.857 E10.4684
G1 X123.185 Y106.65 E10.47183
G1 X123.119 Y106.491 E10.47737
G1 X123.092 Y106.462 E10.47935
G1 X122.728 Y106.076 E10.50582
G1 X122.23 Y105.828 E10.53357
G1 X121.796 Y105.76 E10.55549
G1 X121.409 Y105.82 E10.57503
G1 X121.246 Y105.845 E10.58326
G1 X121.236 Y105.85 E10.58381
G1 X121.123 Y105.914 E10.59029
G1 X121.145 Y105.822 E10.59046
G1 X121.167 Y105.729 E10.59154
G1 X121.181 Y105.565 E10.59975
G1 X121.216 Y105.171 E10.61949
G1 X121.213 Y104.614 E10.64728
G1 X121.144 Y104.017 E10.67726
G1 X120.989 Y103.416 E10.70822
G1 X120.753 Y102.884 E10.73726
G1 X120.438 Y102.42 E10.76524
G1 X119.952 Y101.966 E10.79842
G1 X119.395 Y101.674 E10.8298
G1 X118.634 Y101.5 E10.86874
G1 X117.98 Y101.45 E10.90147
G1 X117.316 Y101.451 E10.93459
G1 X116.823 Y101.433 E10.9592
G1 X116.29 Y101.482 E10.98591
G1 X115.823 Y101.711 E11.01186
G1 X115.553 Y102.073 E11.03439
G1 X115.491 Y102.54 E11.05789
G1 X115.534 Y103.07 E11.08442
G1 X115.523 Y103.924 E11.12703
G1 X115.525 Y104.314 E11.14649
G1 X115.525 Y105.274 E11.19438
G1 X115.525 Y105.354 E11.19823
G1 X115.525 Y106.038 E11.2233
G1 X115.525 Y106.258 E11.22951
G1 X115.526 Y106.595 E11.23925
G1 X115.527 Y106.833 E11.24799
G1 X115.519 Y107.193 E11.26376
G1 X115.514 Y107.393 E11.27374
G1 X115.61 Y107.868 E11.29791
G1 X115.81 Y108.213 E11.31781
G1 X116.172 Y108.466 E11.33984
G1 X116.625 Y108.518 E11.36259
G1 X117.252 Y108.473 E11.39395
G1 X117.954 Y108.482 E11.42898
G1 X118.571 Y108.438 E11.45984
G1 X119.198 Y108.307 E11.4918
G1 X119.794 Y108.032 E11.52454
G1 X119.989 Y107.874 E11.53707
G1 X120.204 Y107.699 E11.5509
G1 X120.3 Y107.959 E11.55911
G1 X120.382 Y108.178 E11.57077
G1 X120.752 Y108.607 E11.59904
G1 X121.244 Y108.883 E11.62718
G1 X121.804 Y108.97 E11.65546
G1 X122.358 Y108.859 E11.68364
G1 X122.845 Y108.556 E11.71226
G1 X123.101 Y108.226 E11.7331
G1 X123.15 Y108.163 E11.73708
G1 X123.253 Y108.343 E11.74271
G1 X123.638 Y108.609 E11.76605
G1 X124.113 Y108.693 E11.79012
G1 X124.495 Y108.576 E11.81005
G1 X124.865 Y108.237 E11.83509
G1 X124.945 Y108.115 E11.84237
G1 X125.116 Y107.855 E11.85789
G1 X125.28 Y108.119 E11.86684
G1 X125.281 Y108.12 E11.86691
G1 X125.412 Y108.33 E11.87926
G1 X125.75 Y108.604 E11.90097
G1 X126.241 Y108.712 E11.92605
G1 X126.699 Y108.608 E11.94948
G1 X127.091 Y108.311 E11.97402
G1 X127.285 Y107.858 E11.99861
G1 X127.265 Y107.334 E12.02477
G1 X127.077 Y106.892 E12.04873
G1 X126.616 Y106.115 E12.0938
G1 X126.4 Y105.743 E12.11527
G1 X126.496 Y105.473 E12.12956
G1 X126.706 Y105.14 E12.1492
G1 X126.933 Y104.75 E12.17172
G1 X127.096 Y104.469 E12.18792
G1 X127.154 Y104.313 E12.19623
G1 X127.195 Y104.435 E12.19658
G1 X127.299 Y104.744 E12.20738
G1 X127.362 Y104.931 E12.21723
G1 X127.565 Y105.422 E12.24373
G1 X127.708 Y105.811 E12.26441
G1 X127.986 Y106.545 E12.30357
G1 X128.184 Y107.09 E12.3325
G1 X128.396 Y107.556 E12.35804
G1 X128.435 Y107.715 E12.36621
G1 X128.372 Y107.906 E12.37624
G1 X128.069 Y108.627 E12.41526
